X: 13
T:Lady Lucy Ramsey' Favorite. BF14.12
M:4/4
Q:180
S:MS14,Browne "D",early 19thC,Troutbeck,W'morland
R:Reel
O:England
A:Lake District
Z:vmp.Chris Partington
K:C
egga geca|gcgc eddg|egga aage|f/e/d/c/ Bg ecc2:|!
|:GcEc dcde|cced cAAc|GcEc dcde |cAAc ECC2|!
GcEc dcde|cced cAAc|GcEc AcGc|Aagf ecc2|]
